storage/app/icons/phosphoricons/duotone/paint-roller-duotone.svg

<svg xmlns="http://www.w3.org/2000/svg" fill="currentColor" viewBox="0 0 256 256"><path d="M208 64v64a8 8 0 0 1-8 8H48a8 8 0 0 1-8-8V64a8 8 0 0 1 8-8h152a8 8 0 0 1 8 8" opacity=".2"/><path d="M232 88h-16V64a16 16 0 0 0-16-16H48a16 16 0 0 0-16 16v24H16a8 8 0 0 0 0 16h16v24a16 16 0 0 0 16 16h152a16 16 0 0 0 16-16v-24h16v50l-100.4 28.65A16.07 16.07 0 0 0 120 198v34a8 8 0 0 0 16 0v-34l100.4-28.68A16.07 16.07 0 0 0 248 154v-50a16 16 0 0 0-16-16m-32 40H48V64h152z"/></svg>

<svg xmlns="http://www.w3.org/2000/svg" viewBox="0 0 256 256" fill="currentColor"><path d="M208,64v64a8,8,0,0,1-8,8H48a8,8,0,0,1-8-8V64a8,8,0,0,1,8-8H200A8,8,0,0,1,208,64Z" opacity="0.2"/><path d="M232,88H216V64a16,16,0,0,0-16-16H48A16,16,0,0,0,32,64V88H16a8,8,0,0,0,0,16H32v24a16,16,0,0,0,16,16H200a16,16,0,0,0,16-16V104h16v50L131.6,182.65A16.07,16.07,0,0,0,120,198v34a8,8,0,0,0,16,0V198l100.4-28.68A16.07,16.07,0,0,0,248,154V104A16,16,0,0,0,232,88Zm-32,40H48V64H200v64Z"/></svg>
